!!!COM: Mozart, Wolfgang Amadeus
!!!OTL: Menuetto (Excerpt from Second Trio)
!!!YEM: Copyright 2003 Recordare LLC
!!!OPS: K. 581
!!!OPR: Quintet for Clarinet and Strings
!!!OMV: 3
!!!RDT: 2003/03/14/
**kern	**kern	**kern	**kern	**kern
*Iclars	*Ivioln	*Ivioln	*Iviola	*Icello
!clarinet in A	!violino I	!violino II	!viola	!violoncello
*clefG2	*clefG2	*clefG2	*clefC3	*clefF4
*k[f#c#g#]	*k[f#c#g#]	*k[f#c#g#]	*k[f#c#g#]	*k[f#c#g#]
*Trd+2c+3	*	*	*	*
*M3/4	*M3/4	*M3/4	*M3/4	*M3/4
*[A,A,B]	*[A,A,B]	*[A,A,B]	*[A,A,B]	*[A,A,B]
=0-	=0-	=0-	=0-	=0-
*>A	*>A	*>A	*>A	*>A
!p	!	!	!	!
(8a\L	4r	4r	4r	4r
8cc#\J	.	.	.	.
=1	=1	=1	=1	=1
!	!p	!p	!p	!p
8ee\L	4r	4r	4r	4A\
8cc#\J	.	.	.	.
4aa\)	4a/	4e/	4c#\	4r
(8ee\L	4a/	4e/	4c#\	4r
8cc#\J	.	.	.	.
=2	=2	=2	=2	=2
8b\L	4r	4r	4r	4D\
8dd\J	.	.	.	.
4ff#\)	4a/	4f#/	4B/	4r
(8dd\L	4a/	4f#/	4B/	4r
8b\J	.	.	.	.
=3	=3	=3	=3	=3
8a\L	4r	4r	4r	4E\
8g#\	.	.	.	.
8cc#\	4g#/	4d/	4B/	4r
8b\	.	.	.	.
8ee\	4g#/	4d/	4B/	4r
8dd\J)	.	.	.	.
=4	=4	=4	=4	=4
(4b#\	4r	4r	4r	4F#\
4cc#\)	4a/	4c#/	4A/	4r
(8a\L	4a/	4c#/	4A/	4r
8cc#\J	.	.	.	.
=5	=5	=5	=5	=5
8ee\L	4r	4r	4r	4C#/
8cc#\J	.	.	.	.
4aa\)	4a/	4e/	4c#\	4r
(8ee\L	4a/	4e/	4c#\	4r
8cc#\J	.	.	.	.
=6	=6	=6	=6	=6
8b\L	4f#/	4d/	4B/	4D\
8dd\J	.	.	.	.
4ff#\)	4r	4r	4r	4r
4r	(8cc#\L	(4g/	(4e\	4r
.	8a#\J	.	.	.
=7	=7	=7	=7	=7
2.r	8b\L	2f#/	2d\	2.r
.	8dd\J	.	.	.
.	4ff#\)	.	.	.
.	(8cc#\L	4g/	4e\	.
.	8a#\J	.	.	.
=8	=8	=8	=8	=8
4r	8b\L	2f#/)	2d\)	2.r
.	8dd\J	.	.	.
4r	4ff#\)	.	.	.
(12B/L	4r	4r	4r	.
12F#/	.	.	.	.
12D/J	.	.	.	.
=9	=9	=9	=9	=9
8F#/L)	2.r	2.r	2.r	2.r
8B/'	.	.	.	.
8d/'	.	.	.	.
8f#/'	.	.	.	.
8b/'	.	.	.	.
8dd/'J	.	.	.	.
=10	=10	=10	=10	=10
(8ff#\L	2.r	2.r	2.r	2.r
8ee\	.	.	.	.
8dd\	.	.	.	.
8cc#\	.	.	.	.
8dd\	.	.	.	.
8b\J)	.	.	.	.
=11	=11	=11	=11	=11
(2a\	(8c#/L	(2A/	[2.E/	(4EE'/
.	8e/	.	.	.
.	8c#/	.	.	4EE'/
.	8e/	.	.	.
8cc#\L	8d/	4G#/)	.	4EE'/)
8b\J)	8e/J)	.	.	.
=12	=12	=12	=12	=12
4a\	4c#/	4A/	4E/]	4AA/
4r	4r	4r	4r	4r
=:||:	=:||:	=:||:	=:||:	=:||:
*>B	*>B	*>B	*>B	*>B
4r	(8e/L	4r	4r	4r
.	8g#/J	.	.	.
=13	=13	=13	=13	=13
!	!	!p	!pizz.	!p
!	!	!pizz.	!p	!pizz.
2.r	8b/L	4B/ 4g#/	4d\ 4e\	4E\
.	8g#/J	.	.	.
.	4ee\)	4B/ 4g#/	4d\ 4e\	4E\
.	(8e/L	4r	4r	4r
.	8a/J	.	.	.
=14	=14	=14	=14	=14
2.r	8cc#\L	4A/ 4a/	4c#\ 4e\	4E\
.	8a\J	.	.	.
.	4ee\)	4A/ 4a/	4c#\ 4e\	4E\
.	(8e/L	4r	4r	4r
.	8b/J	.	.	.
=15	=15	=15	=15	=15
2.r	8dd\L	4g#/ 4b/	4e\	4E\
.	8b\	.	.	.
.	8ee\	4g#/ 4b/	4e\	4E\
.	8dd\	.	.	.
.	8cc#\	4a\ 4cc#\	4e\	4E\
.	8a\J)	.	.	.
=16	=16	=16	=16	=16
4r	(8g#/L	4g#/ 4b/	4e\	4E\
.	8b/J	.	.	.
4r	4ee\)	4g#/ 4b/	4e\	4EE/
(4ee\	(8e/L	4r	4r	4r
.	8g#/J	.	.	.
*-	*-	*-	*-	*-
